img/icons/twitter.svg

<svg width="18" height="18" viewBox="0 0 18 18" fill="none" xmlns="http://www.w3.org/2000/svg">
<path fill-rule="evenodd" clip-rule="evenodd" d="M9.60259 4.89123C9.17603 5.56789 9.03204 6.36167 9.03204 6.73843C9.03204 6.98666 8.90808 7.21872 8.70115 7.35789C8.49422 7.49705 8.23126 7.52519 7.99924 7.433C7.84749 7.37271 7.67843 7.31141 7.49562 7.24513C7.02202 7.07342 6.45621 6.86828 5.86045 6.56055C5.25541 6.24803 4.59611 5.82359 3.84932 5.19337C3.85859 5.4747 3.92116 5.73236 4.02628 5.97115C4.27171 6.5286 4.7921 7.07973 5.65382 7.59301C5.88959 7.73345 6.02959 7.99032 6.01907 8.26319C6.00856 8.53606 5.8492 8.78156 5.60332 8.90368L5.60249 8.90408L5.60159 8.90453L5.59959 8.90552L5.59471 8.90789L5.58157 8.91418C5.57131 8.91904 5.55806 8.92518 5.54192 8.93242C5.50964 8.9469 5.46572 8.96581 5.41089 8.98759C5.30135 9.03111 5.14757 9.08642 4.95565 9.14089C4.75382 9.19817 4.50807 9.25501 4.22593 9.29597C4.38692 9.86384 4.74574 10.2183 5.13238 10.486C5.35975 10.6435 5.57971 10.7594 5.80079 10.8758C5.85578 10.9048 5.91083 10.9338 5.96609 10.9635C6.08682 11.0284 6.24555 11.1161 6.37681 11.2204C6.47811 11.3009 6.77273 11.5508 6.77273 11.9749C6.77273 12.2461 6.6489 12.4575 6.57052 12.5704C6.47882 12.7026 6.36308 12.8218 6.2419 12.9261C5.99744 13.1364 5.66926 13.3386 5.28018 13.5041C4.83217 13.6948 4.28525 13.8447 3.66004 13.8987C3.71125 13.926 3.76569 13.9521 3.82344 13.9769C4.37159 14.2129 5.17325 14.3094 6.13899 14.2222C8.05369 14.0493 10.3252 13.1814 11.8864 11.8208C13.0832 10.4477 13.5901 9.08907 13.8011 8.08216C13.9078 7.57282 13.9389 7.1524 13.944 6.86541C13.9466 6.72205 13.9427 6.6125 13.9386 6.54241C13.9365 6.50739 13.9344 6.48229 13.933 6.46783L13.9317 6.45423C13.9095 6.27146 13.9559 6.08655 14.0622 5.93563L13.9319 6.45589L13.9321 6.45718L14.0622 5.93563L15.4475 6.56996C15.4361 6.58735 15.4579 6.55438 15.4475 6.56996C15.4475 6.56996 15.4522 6.76733 15.45 6.89198C15.4434 7.25956 15.4041 7.77423 15.2757 8.387C15.0183 9.61556 14.4035 11.2344 12.989 12.8414C12.9681 12.865 12.9458 12.8874 12.9222 12.9082C11.0934 14.522 8.48866 15.5124 6.27534 15.7122C5.16978 15.8121 4.08855 15.7216 3.22458 15.3497C2.32995 14.9647 1.63993 14.2555 1.50582 13.1898C1.47633 12.9554 1.56001 12.721 1.73156 12.5574C1.9031 12.3938 2.14235 12.3203 2.37692 12.3592C3.35667 12.5214 4.15275 12.3563 4.68704 12.1289C4.74031 12.1062 4.83747 12.06 4.83747 12.06C4.83747 12.06 4.46511 11.8478 4.27099 11.7134C3.4763 11.1631 2.63065 10.2329 2.63065 8.60861C2.63065 8.19547 2.96783 7.86054 3.38376 7.86054C3.43852 7.86054 3.49222 7.85951 3.54481 7.85757C3.16114 7.47189 2.85479 7.04426 2.64627 6.57062C2.22352 5.6104 2.24561 4.55823 2.68451 3.46831C2.77853 3.23484 2.98435 3.0639 3.23233 3.01335C3.48031 2.96279 3.73728 3.03936 3.91628 3.21717C4.99872 4.29238 5.84759 4.86757 6.55535 5.23315C6.96194 5.44317 7.31062 5.58156 7.65936 5.71005C7.78024 5.20025 7.99149 4.62784 8.32599 4.09721C8.94385 3.11707 10.01 2.25 11.6679 2.25C12.6964 2.25 13.3581 2.75344 13.7748 3.09847C13.825 3.14005 13.8686 3.17642 13.9069 3.20837C14.0032 3.28882 14.066 3.34127 14.1172 3.37836C14.4596 3.21718 14.7687 3.10424 15.0436 3.05221C15.3358 2.9969 15.7569 2.97994 16.1036 3.25569C16.4684 3.54584 16.5107 3.96319 16.4981 4.21038C16.485 4.46908 16.4075 4.72814 16.326 4.944C16.1594 5.38494 15.8945 5.85364 15.6879 6.1916C15.5974 6.33963 15.5138 6.46946 15.4475 6.56996C15.4608 6.73327 15.4461 6.55454 15.4475 6.56996L14.0622 5.93563L14.0631 5.93441L14.0674 5.92821L14.0862 5.90108C14.1029 5.8767 14.1277 5.8402 14.1587 5.79376C14.2207 5.70064 14.3065 5.56872 14.4004 5.41509C14.5339 5.19676 14.6732 4.95167 14.7848 4.71983C14.7395 4.74091 14.6915 4.76399 14.6407 4.78923C14.6305 4.7943 14.6201 4.79914 14.6097 4.80374C14.1489 5.00723 13.7338 4.88795 13.4423 4.72401C13.2411 4.61082 13.0357 4.43743 12.8874 4.31228C12.8596 4.28882 12.8338 4.26706 12.8104 4.2477C12.4578 3.95571 12.1457 3.74614 11.6679 3.74614C10.6348 3.74614 10.0065 4.25054 9.60259 4.89123Z" fill="#333333"/>
</svg>

<svg width="18" height="18" fill="none" xmlns="http://www.w3.org/2000/svg"><path fill-rule="evenodd" clip-rule="evenodd" d="M9.603 4.891c-.427.677-.571 1.47-.571 1.847a.75.75 0 01-.33.62.757.757 0 01-.703.075c-.152-.06-.32-.122-.503-.188-.474-.172-1.04-.377-1.636-.684a10.715 10.715 0 01-2.01-1.368c.009.282.071.54.176.778.246.558.766 1.109 1.628 1.622a.747.747 0 01-.05 1.31l-.002.001-.002.002-.005.002-.013.006a2.125 2.125 0 01-.171.074c-.11.043-.263.098-.455.153a5.654 5.654 0 01-.73.155c.16.568.52.922.906 1.19.228.157.448.273.669.39l.165.088c.12.064.28.152.41.256.102.08.397.33.397.755 0 .271-.124.482-.202.595a1.934 1.934 0 01-.33.356c-.244.21-.572.413-.96.578a5.38 5.38 0 01-1.621.395c.051.027.106.053.163.078.549.236 1.35.332 2.316.245 1.915-.173 4.186-1.04 5.747-2.401 1.197-1.373 1.704-2.732 1.915-3.739.107-.51.138-.93.143-1.217a4.265 4.265 0 00-.011-.397l-.001-.014a.745.745 0 01.13-.518l-.13.52v.001l.13-.521 1.386.634c-.012.017.01-.016 0 0 0 0 .004.197.002.322a8.04 8.04 0 01-.174 1.495c-.258 1.229-.873 2.847-2.287 4.454a.766.766 0 01-.067.067c-1.829 1.614-4.433 2.604-6.647 2.804-1.105.1-2.186.01-3.05-.362-.895-.385-1.585-1.095-1.72-2.16a.745.745 0 01.227-.633.756.756 0 01.645-.198c.98.162 1.776-.003 2.31-.23.053-.023.15-.069.15-.069s-.372-.212-.566-.347c-.795-.55-1.64-1.48-1.64-3.104a.75.75 0 01.753-.748c.055 0 .108-.001.16-.003a4.27 4.27 0 01-.898-1.287c-.422-.96-.4-2.013.039-3.103a.756.756 0 011.232-.251c1.082 1.075 1.93 1.65 2.638 2.016.407.21.756.349 1.104.477.121-.51.332-1.082.667-1.613.618-.98 1.684-1.847 3.342-1.847 1.028 0 1.69.503 2.107.848l.132.11c.096.08.159.133.21.17a4.05 4.05 0 01.927-.326c.292-.055.713-.072 1.06.204.364.29.407.707.394.954a2.49 2.49 0 01-.172.734c-.167.44-.431.91-.638 1.248-.09.148-.174.277-.24.378.013.163-.002-.015 0 0l-1.386-.634.001-.002.004-.006.02-.027a10.938 10.938 0 00.313-.486 8.19 8.19 0 00.385-.695 6.257 6.257 0 00-.175.084c-.461.203-.876.084-1.168-.08-.2-.113-.406-.287-.555-.412a10.703 10.703 0 00-.077-.064c-.352-.292-.664-.502-1.142-.502-1.033 0-1.661.505-2.065 1.145z" fill="#333"/></svg>
